images/160453.svg

<?xml version="1.0" encoding="UTF-8"?>
<svg xmlns="http://www.w3.org/2000/svg" xmlns:xlink="http://www.w3.org/1999/xlink" width="300pt" height="300pt" viewBox="0 0 300 300" version="1.1">
<defs>
<g>
<symbol overflow="visible" id="glyph0-0">
<path style="stroke:none;" d="M 0.59375 2.125 L 0.59375 -8.46875 L 6.59375 -8.46875 L 6.59375 2.125 Z M 1.265625 1.453125 L 5.9375 1.453125 L 5.9375 -7.78125 L 1.265625 -7.78125 Z M 1.265625 1.453125 "/>
</symbol>
<symbol overflow="visible" id="glyph0-1">
<path style="stroke:none;" d="M 4.734375 -7.953125 C 3.867188 -7.953125 3.179688 -7.628906 2.671875 -6.984375 C 2.171875 -6.347656 1.921875 -5.472656 1.921875 -4.359375 C 1.921875 -3.265625 2.171875 -2.394531 2.671875 -1.75 C 3.179688 -1.113281 3.867188 -0.796875 4.734375 -0.796875 C 5.585938 -0.796875 6.265625 -1.113281 6.765625 -1.75 C 7.273438 -2.394531 7.53125 -3.265625 7.53125 -4.359375 C 7.53125 -5.472656 7.273438 -6.347656 6.765625 -6.984375 C 6.265625 -7.628906 5.585938 -7.953125 4.734375 -7.953125 Z M 4.734375 -8.90625 C 5.953125 -8.90625 6.925781 -8.492188 7.65625 -7.671875 C 8.394531 -6.847656 8.765625 -5.742188 8.765625 -4.359375 C 8.765625 -2.984375 8.394531 -1.882812 7.65625 -1.0625 C 6.925781 -0.238281 5.953125 0.171875 4.734375 0.171875 C 3.503906 0.171875 2.519531 -0.238281 1.78125 -1.0625 C 1.039062 -1.882812 0.671875 -2.984375 0.671875 -4.359375 C 0.671875 -5.742188 1.039062 -6.847656 1.78125 -7.671875 C 2.519531 -8.492188 3.503906 -8.90625 4.734375 -8.90625 Z M 4.734375 -8.90625 "/>
</symbol>
<symbol overflow="visible" id="glyph0-2">
<path style="stroke:none;" d="M 1.171875 -8.75 L 2.765625 -8.75 L 6.65625 -1.4375 L 6.65625 -8.75 L 7.796875 -8.75 L 7.796875 0 L 6.203125 0 L 2.328125 -7.3125 L 2.328125 0 L 1.171875 0 Z M 1.171875 -8.75 "/>
</symbol>
<symbol overflow="visible" id="glyph0-3">
<path style="stroke:none;" d="M 1.171875 -8.75 L 2.359375 -8.75 L 2.359375 -5.15625 L 6.65625 -5.15625 L 6.65625 -8.75 L 7.84375 -8.75 L 7.84375 0 L 6.65625 0 L 6.65625 -4.171875 L 2.359375 -4.171875 L 2.359375 0 L 1.171875 0 Z M 1.171875 -8.75 "/>
</symbol>
</g>
</defs>
<g id="surface53221">
<rect x="0" y="0" width="300" height="300" style="fill:rgb(100%,100%,100%);fill-opacity:1;stroke:none;"/>
<path style="fill:none;stroke-width:1.2;stroke-linecap:butt;stroke-linejoin:miter;stroke:rgb(0%,0%,0%);stroke-opacity:1;stroke-miterlimit:10;" d="M 42.648438 189.109375 L 35.25 159.816406 "/>
<path style="fill:none;stroke-width:1.2;stroke-linecap:butt;stroke-linejoin:miter;stroke:rgb(0%,0%,0%);stroke-opacity:1;stroke-miterlimit:10;" d="M 48.800781 184.4375 L 42.882812 161.003906 "/>
<path style="fill:none;stroke-width:1.2;stroke-linecap:butt;stroke-linejoin:miter;stroke:rgb(0%,0%,0%);stroke-opacity:1;stroke-miterlimit:10;" d="M 71.714844 197.347656 L 42.648438 189.109375 "/>
<path style="fill:none;stroke-width:1.2;stroke-linecap:butt;stroke-linejoin:miter;stroke:rgb(0%,0%,0%);stroke-opacity:1;stroke-miterlimit:10;" d="M 35.25 159.816406 L 56.917969 138.761719 "/>
<path style="fill:none;stroke-width:1.2;stroke-linecap:butt;stroke-linejoin:miter;stroke:rgb(0%,0%,0%);stroke-opacity:1;stroke-miterlimit:10;" d="M 56.917969 138.761719 L 85.988281 147 "/>
<path style="fill:none;stroke-width:1.2;stroke-linecap:butt;stroke-linejoin:miter;stroke:rgb(0%,0%,0%);stroke-opacity:1;stroke-miterlimit:10;" d="M 57.886719 146.425781 L 81.140625 153.015625 "/>
<path style="fill:none;stroke-width:1.2;stroke-linecap:butt;stroke-linejoin:miter;stroke:rgb(0%,0%,0%);stroke-opacity:1;stroke-miterlimit:10;" d="M 85.988281 147 L 93.386719 176.292969 "/>
<path style="fill:none;stroke-width:1.2;stroke-linecap:butt;stroke-linejoin:miter;stroke:rgb(0%,0%,0%);stroke-opacity:1;stroke-miterlimit:10;" d="M 111.558594 130.914062 L 85.988281 147 "/>
<path style="fill:none;stroke-width:1.2;stroke-linecap:butt;stroke-linejoin:miter;stroke:rgb(0%,0%,0%);stroke-opacity:1;stroke-miterlimit:10;" d="M 93.386719 176.292969 L 71.714844 197.347656 "/>
<path style="fill:none;stroke-width:1.2;stroke-linecap:butt;stroke-linejoin:miter;stroke:rgb(0%,0%,0%);stroke-opacity:1;stroke-miterlimit:10;" d="M 86.265625 173.300781 L 68.929688 190.144531 "/>
<path style="fill:none;stroke-width:1.2;stroke-linecap:butt;stroke-linejoin:miter;stroke:rgb(0%,0%,0%);stroke-opacity:1;stroke-miterlimit:10;" d="M 93.386719 176.292969 L 123.53125 178.308594 "/>
<path style="fill:none;stroke-width:1.2;stroke-linecap:butt;stroke-linejoin:miter;stroke:rgb(0%,0%,0%);stroke-opacity:1;stroke-miterlimit:10;" d="M 120.523438 180.203125 L 128.566406 192.988281 "/>
<path style="fill:none;stroke-width:1.2;stroke-linecap:butt;stroke-linejoin:miter;stroke:rgb(100%,0%,0%);stroke-opacity:1;stroke-miterlimit:10;" d="M 128.566406 192.988281 L 136.609375 205.777344 "/>
<path style="fill:none;stroke-width:1.2;stroke-linecap:butt;stroke-linejoin:miter;stroke:rgb(0%,0%,0%);stroke-opacity:1;stroke-miterlimit:10;" d="M 126.539062 176.417969 L 134.582031 189.203125 "/>
<path style="fill:none;stroke-width:1.2;stroke-linecap:butt;stroke-linejoin:miter;stroke:rgb(100%,0%,0%);stroke-opacity:1;stroke-miterlimit:10;" d="M 134.582031 189.203125 L 142.628906 201.988281 "/>
<path style="fill:none;stroke-width:1.2;stroke-linecap:butt;stroke-linejoin:miter;stroke:rgb(0%,0%,0%);stroke-opacity:1;stroke-miterlimit:10;" d="M 123.53125 178.308594 L 129.148438 164.285156 "/>
<path style="fill:none;stroke-width:1.2;stroke-linecap:butt;stroke-linejoin:miter;stroke:rgb(0%,0%,100%);stroke-opacity:1;stroke-miterlimit:10;" d="M 129.148438 164.285156 L 134.761719 150.261719 "/>
<path style=" stroke:none;fill-rule:nonzero;fill:rgb(100%,100%,100%);fill-opacity:1;" d="M 134.617188 196.882812 L 144.617188 196.882812 L 144.617188 210.882812 L 134.617188 210.882812 Z M 134.617188 196.882812 "/>
<g style="fill:rgb(100%,0%,0%);fill-opacity:1;">
  <use xlink:href="#glyph0-1" x="134.617188" y="208.021484"/>
</g>
<path style="fill:none;stroke-width:1.2;stroke-linecap:butt;stroke-linejoin:miter;stroke:rgb(0%,0%,100%);stroke-opacity:1;stroke-miterlimit:10;" d="M 134.761719 150.261719 L 123.160156 140.585938 "/>
<path style="fill:none;stroke-width:1.2;stroke-linecap:butt;stroke-linejoin:miter;stroke:rgb(0%,0%,0%);stroke-opacity:1;stroke-miterlimit:10;" d="M 123.160156 140.585938 L 111.558594 130.914062 "/>
<path style="fill:none;stroke-width:1;stroke-linecap:butt;stroke-linejoin:miter;stroke:rgb(0%,0%,0%);stroke-opacity:1;stroke-miterlimit:10;" d="M 164.058594 142.863281 L 164.058594 142.863281 M 161.066406 143.082031 L 161.320312 144.09375 M 158.074219 143.300781 L 158.582031 145.320312 M 155.082031 143.519531 L 155.847656 146.550781 M 152.089844 143.734375 L 153.109375 147.78125 M 149.097656 143.953125 L 150.371094 149.007812 M 146.105469 144.171875 L 147.636719 150.238281 M 143.113281 144.390625 L 144.898438 151.464844 M 140.121094 144.609375 L 142.164062 152.695312 M 137.128906 144.824219 L 139.425781 153.925781 M 134.136719 145.042969 L 136.6875 155.152344 M 133.457031 145.09375 L 136.070312 155.433594 "/>
<path style=" stroke:none;fill-rule:nonzero;fill:rgb(100%,100%,100%);fill-opacity:1;" d="M 130.761719 143.261719 L 139.761719 143.261719 L 139.761719 157.261719 L 130.761719 157.261719 Z M 130.761719 143.261719 "/>
<g style="fill:rgb(0%,0%,100%);fill-opacity:1;">
  <use xlink:href="#glyph0-2" x="130.761719" y="154.400391"/>
</g>
<path style="fill:none;stroke-width:1.2;stroke-linecap:butt;stroke-linejoin:miter;stroke:rgb(0%,0%,0%);stroke-opacity:1;stroke-miterlimit:10;" d="M 115.105469 131.148438 L 116.113281 116.078125 "/>
<path style="fill:none;stroke-width:1.2;stroke-linecap:butt;stroke-linejoin:miter;stroke:rgb(100%,0%,0%);stroke-opacity:1;stroke-miterlimit:10;" d="M 116.113281 116.078125 L 117.121094 101.003906 "/>
<path style="fill:none;stroke-width:1.2;stroke-linecap:butt;stroke-linejoin:miter;stroke:rgb(0%,0%,0%);stroke-opacity:1;stroke-miterlimit:10;" d="M 108.015625 130.675781 L 109.023438 115.601562 "/>
<path style="fill:none;stroke-width:1.2;stroke-linecap:butt;stroke-linejoin:miter;stroke:rgb(100%,0%,0%);stroke-opacity:1;stroke-miterlimit:10;" d="M 109.023438 115.601562 L 110.03125 100.53125 "/>
<path style=" stroke:none;fill-rule:nonzero;fill:rgb(100%,100%,100%);fill-opacity:1;" d="M 108.578125 93.765625 L 118.578125 93.765625 L 118.578125 107.765625 L 108.578125 107.765625 Z M 108.578125 93.765625 "/>
<g style="fill:rgb(100%,0%,0%);fill-opacity:1;">
  <use xlink:href="#glyph0-1" x="108.578125" y="104.904297"/>
</g>
<path style="fill:none;stroke-width:1.2;stroke-linecap:butt;stroke-linejoin:miter;stroke:rgb(0%,0%,0%);stroke-opacity:1;stroke-miterlimit:10;" d="M 164.058594 142.863281 L 185.109375 164.535156 "/>
<path style="fill:none;stroke-width:1.2;stroke-linecap:butt;stroke-linejoin:miter;stroke:rgb(0%,0%,0%);stroke-opacity:1;stroke-miterlimit:10;" d="M 164.058594 142.863281 L 172.296875 113.796875 "/>
<path style="fill:none;stroke-width:1.2;stroke-linecap:butt;stroke-linejoin:miter;stroke:rgb(0%,0%,0%);stroke-opacity:1;stroke-miterlimit:10;" d="M 185.109375 164.535156 L 214.402344 157.136719 "/>
<path style="fill:none;stroke-width:1.2;stroke-linecap:butt;stroke-linejoin:miter;stroke:rgb(0%,0%,0%);stroke-opacity:1;stroke-miterlimit:10;" d="M 214.402344 157.136719 L 235.457031 178.804688 "/>
<path style="fill:none;stroke-width:1.2;stroke-linecap:butt;stroke-linejoin:miter;stroke:rgb(0%,0%,0%);stroke-opacity:1;stroke-miterlimit:10;" d="M 232.039062 177.835938 L 227.917969 192.371094 "/>
<path style="fill:none;stroke-width:1.2;stroke-linecap:butt;stroke-linejoin:miter;stroke:rgb(100%,0%,0%);stroke-opacity:1;stroke-miterlimit:10;" d="M 227.917969 192.371094 L 223.796875 206.902344 "/>
<path style="fill:none;stroke-width:1.2;stroke-linecap:butt;stroke-linejoin:miter;stroke:rgb(0%,0%,0%);stroke-opacity:1;stroke-miterlimit:10;" d="M 238.875 179.773438 L 234.757812 194.308594 "/>
<path style="fill:none;stroke-width:1.2;stroke-linecap:butt;stroke-linejoin:miter;stroke:rgb(100%,0%,0%);stroke-opacity:1;stroke-miterlimit:10;" d="M 234.757812 194.308594 L 230.636719 208.84375 "/>
<path style="fill:none;stroke-width:1.2;stroke-linecap:butt;stroke-linejoin:miter;stroke:rgb(0%,0%,0%);stroke-opacity:1;stroke-miterlimit:10;" d="M 235.457031 178.804688 L 250.101562 175.105469 "/>
<path style="fill:none;stroke-width:1.2;stroke-linecap:butt;stroke-linejoin:miter;stroke:rgb(100%,0%,0%);stroke-opacity:1;stroke-miterlimit:10;" d="M 250.101562 175.105469 L 264.75 171.40625 "/>
<path style=" stroke:none;fill-rule:nonzero;fill:rgb(100%,100%,100%);fill-opacity:1;" d="M 222.21875 200.871094 L 232.21875 200.871094 L 232.21875 214.871094 L 222.21875 214.871094 Z M 222.21875 200.871094 "/>
<g style="fill:rgb(100%,0%,0%);fill-opacity:1;">
  <use xlink:href="#glyph0-1" x="222.21875" y="212.009766"/>
</g>
<path style=" stroke:none;fill-rule:nonzero;fill:rgb(100%,100%,100%);fill-opacity:1;" d="M 255.75 164.40625 L 274.75 164.40625 L 274.75 178.40625 L 255.75 178.40625 Z M 255.75 164.40625 "/>
<g style="fill:rgb(100%,0%,0%);fill-opacity:1;">
  <use xlink:href="#glyph0-1" x="255.75" y="175.544922"/>
  <use xlink:href="#glyph0-3" x="265.195312" y="175.544922"/>
</g>
<path style="fill:none;stroke-width:1.2;stroke-linecap:butt;stroke-linejoin:miter;stroke:rgb(0%,0%,0%);stroke-opacity:1;stroke-miterlimit:10;" d="M 174.84375 111.320312 L 164.320312 100.484375 "/>
<path style="fill:none;stroke-width:1.2;stroke-linecap:butt;stroke-linejoin:miter;stroke:rgb(100%,0%,0%);stroke-opacity:1;stroke-miterlimit:10;" d="M 164.320312 100.484375 L 153.792969 89.648438 "/>
<path style="fill:none;stroke-width:1.2;stroke-linecap:butt;stroke-linejoin:miter;stroke:rgb(0%,0%,0%);stroke-opacity:1;stroke-miterlimit:10;" d="M 169.746094 116.273438 L 159.21875 105.4375 "/>
<path style="fill:none;stroke-width:1.2;stroke-linecap:butt;stroke-linejoin:miter;stroke:rgb(100%,0%,0%);stroke-opacity:1;stroke-miterlimit:10;" d="M 159.21875 105.4375 L 148.695312 94.605469 "/>
<path style="fill:none;stroke-width:1.2;stroke-linecap:butt;stroke-linejoin:miter;stroke:rgb(0%,0%,0%);stroke-opacity:1;stroke-miterlimit:10;" d="M 172.296875 113.796875 L 186.941406 110.097656 "/>
<path style="fill:none;stroke-width:1.2;stroke-linecap:butt;stroke-linejoin:miter;stroke:rgb(100%,0%,0%);stroke-opacity:1;stroke-miterlimit:10;" d="M 186.941406 110.097656 L 201.589844 106.398438 "/>
<path style=" stroke:none;fill-rule:nonzero;fill:rgb(100%,100%,100%);fill-opacity:1;" d="M 141.242188 85.128906 L 151.242188 85.128906 L 151.242188 99.128906 L 141.242188 99.128906 Z M 141.242188 85.128906 "/>
<g style="fill:rgb(100%,0%,0%);fill-opacity:1;">
  <use xlink:href="#glyph0-1" x="141.242188" y="96.267578"/>
</g>
<path style=" stroke:none;fill-rule:nonzero;fill:rgb(100%,100%,100%);fill-opacity:1;" d="M 192.589844 99.398438 L 211.589844 99.398438 L 211.589844 113.398438 L 192.589844 113.398438 Z M 192.589844 99.398438 "/>
<g style="fill:rgb(100%,0%,0%);fill-opacity:1;">
  <use xlink:href="#glyph0-1" x="192.589844" y="110.537109"/>
  <use xlink:href="#glyph0-3" x="202.035156" y="110.537109"/>
</g>
</g>
</svg>

<svg xmlns="http://www.w3.org/2000/svg" xmlns:xlink="http://www.w3.org/1999/xlink" width="300pt" height="300pt" viewBox="0 0 300 300"><defs><symbol overflow="visible"><path d="M.594 2.125V-8.47h6V2.126zm.672-.672h4.671V-7.78h-4.67zm0 0"/></symbol><symbol overflow="visible" id="a"><path d="M4.734-7.953c-.867 0-1.554.324-2.062.97-.5.635-.75 1.51-.75 2.624 0 1.094.25 1.965.75 2.61.508.637 1.195.953 2.062.953.852 0 1.532-.316 2.032-.953.507-.645.765-1.516.765-2.61 0-1.113-.257-1.988-.764-2.624-.5-.645-1.18-.97-2.032-.97zm0-.953c1.22 0 2.192.414 2.922 1.234.74.824 1.11 1.93 1.11 3.313 0 1.376-.37 2.477-1.11 3.298C6.926-.24 5.953.17 4.734.17c-1.23 0-2.214-.41-2.953-1.234C1.04-1.882.673-2.984.673-4.36c0-1.382.367-2.488 1.11-3.312.738-.82 1.722-1.234 2.952-1.234zm0 0"/></symbol><symbol overflow="visible" id="b"><path d="M1.172-8.75h1.594l3.89 7.313V-8.75h1.14V0H6.204L2.328-7.313V0H1.172zm0 0"/></symbol><symbol overflow="visible" id="c"><path d="M1.172-8.75H2.36v3.594h4.296V-8.75h1.188V0H6.656v-4.172H2.36V0H1.17zm0 0"/></symbol></defs><g><path fill="#fff" d="M0 0h300v300H0z"/><path d="M42.648 189.11l-7.398-29.294M48.8 184.438l-5.917-23.434M71.715 197.348l-29.067-8.24M35.25 159.816l21.668-21.054M56.918 138.762L85.988 147M57.887 146.426l23.254 6.59M85.988 147l7.4 29.293M111.56 130.914L85.987 147M93.387 176.293l-21.672 21.055M86.266 173.3L68.93 190.146M93.387 176.293l30.144 2.016M120.523 180.203l8.043 12.785" stroke-width="1.2" stroke="#000" stroke-miterlimit="10" fill="none"/><path d="M128.566 192.988l8.043 12.79" stroke-width="1.2" stroke="#f00" stroke-miterlimit="10" fill="none"/><path d="M126.54 176.418l8.042 12.785" stroke-width="1.2" stroke="#000" stroke-miterlimit="10" fill="none"/><path d="M134.582 189.203l8.047 12.785" stroke-width="1.2" stroke="#f00" stroke-miterlimit="10" fill="none"/><path d="M123.53 178.31l5.618-14.025" stroke-width="1.2" stroke="#000" stroke-miterlimit="10" fill="none"/><path d="M129.148 164.285l5.614-14.023" stroke-width="1.2" stroke="#00f" stroke-miterlimit="10" fill="none"/><path d="M134.617 196.883h10v14h-10zm0 0" fill="#fff"/><use xlink:href="#a" x="134.617" y="208.021" fill="#f00"/><path d="M134.762 150.262l-11.602-9.676" stroke-width="1.2" stroke="#00f" stroke-miterlimit="10" fill="none"/><path d="M123.16 140.586l-11.6-9.672" stroke-width="1.2" stroke="#000" stroke-miterlimit="10" fill="none"/><path d="M164.06 142.863m-2.994.22l.254 1.01m-3.246-.792l.508 2.02m-3.5-1.8l.766 3.03m-3.758-2.816l1.02 4.047m-4.012-3.827l1.273 5.055m-4.265-4.836l1.532 6.066m-4.524-5.847l1.785 7.075m-4.777-6.856l2.044 8.085m-5.035-7.87l2.296 9.1m-5.29-8.882l2.552 10.11m-3.23-10.06l2.612 10.34" stroke="#000" stroke-miterlimit="10" fill="none"/><path d="M130.762 143.262h9v14h-9zm0 0" fill="#fff"/><use xlink:href="#b" x="130.762" y="154.4" fill="#00f"/><path d="M115.105 131.148l1.008-15.07" stroke-width="1.2" stroke="#000" stroke-miterlimit="10" fill="none"/><path d="M116.113 116.078l1.008-15.074" stroke-width="1.2" stroke="#f00" stroke-miterlimit="10" fill="none"/><path d="M108.016 130.676l1.007-15.074" stroke-width="1.2" stroke="#000" stroke-miterlimit="10" fill="none"/><path d="M109.023 115.602l1.008-15.07" stroke-width="1.2" stroke="#f00" stroke-miterlimit="10" fill="none"/><path d="M108.578 93.766h10v14h-10zm0 0" fill="#fff"/><use xlink:href="#a" x="108.578" y="104.904" fill="#f00"/><path d="M164.06 142.863l21.05 21.672M164.06 142.863l8.237-29.066M185.11 164.535l29.292-7.398M214.402 157.137l21.055 21.668M232.04 177.836l-4.122 14.535" stroke-width="1.2" stroke="#000" stroke-miterlimit="10" fill="none"/><path d="M227.918 192.37l-4.12 14.532" stroke-width="1.2" stroke="#f00" stroke-miterlimit="10" fill="none"/><path d="M238.875 179.773l-4.117 14.536" stroke-width="1.2" stroke="#000" stroke-miterlimit="10" fill="none"/><path d="M234.758 194.31l-4.12 14.534" stroke-width="1.2" stroke="#f00" stroke-miterlimit="10" fill="none"/><path d="M235.457 178.805l14.645-3.7" stroke-width="1.2" stroke="#000" stroke-miterlimit="10" fill="none"/><path d="M250.102 175.105l14.648-3.7" stroke-width="1.2" stroke="#f00" stroke-miterlimit="10" fill="none"/><path d="M222.22 200.87h10v14h-10zm0 0" fill="#fff"/><use xlink:href="#a" x="222.219" y="212.01" fill="#f00"/><path d="M255.75 164.406h19v14h-19zm0 0" fill="#fff"/><g fill="#f00"><use xlink:href="#a" x="255.75" y="175.545"/><use xlink:href="#c" x="265.195" y="175.545"/></g><path d="M174.844 111.32l-10.524-10.836" stroke-width="1.2" stroke="#000" stroke-miterlimit="10" fill="none"/><path d="M164.32 100.484l-10.527-10.836" stroke-width="1.2" stroke="#f00" stroke-miterlimit="10" fill="none"/><path d="M169.746 116.273l-10.527-10.835" stroke-width="1.2" stroke="#000" stroke-miterlimit="10" fill="none"/><path d="M159.22 105.438l-10.525-10.833" stroke-width="1.2" stroke="#f00" stroke-miterlimit="10" fill="none"/><path d="M172.297 113.797l14.644-3.7" stroke-width="1.2" stroke="#000" stroke-miterlimit="10" fill="none"/><path d="M186.94 110.098l14.65-3.7" stroke-width="1.2" stroke="#f00" stroke-miterlimit="10" fill="none"/><path d="M141.242 85.13h10v14h-10zm0 0" fill="#fff"/><use xlink:href="#a" x="141.242" y="96.268" fill="#f00"/><path d="M192.59 99.398h19v14h-19zm0 0" fill="#fff"/><g fill="#f00"><use xlink:href="#a" x="192.59" y="110.537"/><use xlink:href="#c" x="202.035" y="110.537"/></g></g></svg>
